assets/icons/tram/tram_T6_carto_RVB.svg

<svg id="tram_T6_carto_RVB" xmlns="http://www.w3.org/2000/svg" width="311.7" height="311.8" viewBox="0 0 311.7 311.8">
	<path id="Tracé_17" data-name="Tracé 17" d="M28.3,311.8A28.338,28.338,0,0,1,0,283.5V28.3A28.338,28.338,0,0,1,28.3,0H283.4a28.338,28.338,0,0,1,28.3,28.3V283.4a28.338,28.338,0,0,1-28.3,28.3H28.3Z" fill="#fff"/>
	<path id="Tracé_18" data-name="Tracé 18" d="M117.9,122.3v89.6H93.7V122.3H60.2V102.7h91.3v19.6H117.9Zm96.3,92.2c-29.9,0-40.5-20.7-40.5-49.6,0-37.9,17.8-65.1,52.7-65.1a71.086,71.086,0,0,1,16.4,1.9l-3.4,18.6a43.113,43.113,0,0,0-15-2.6c-15.3,0-26.4,12.2-28,34.2,3.7-3.2,10.8-7.4,22.6-7.4,18.1,0,32.6,11.9,32.6,32.3,0,21.6-14.5,37.7-37.4,37.7m-2.2-53c-7,0-12.5,2.6-14.7,6-1.2,1.9-1.2,6.2-1.2,9.4,0,10.4,6,20.4,17.2,20.4,10.8,0,16.4-8.8,16.4-18.2,0-10.2-6.8-17.6-17.7-17.6"/>
	<path id="Tracé_19" data-name="Tracé 19" d="M283.5,57.4H28.3A14.19,14.19,0,0,1,14.1,43.2V29.1A14.19,14.19,0,0,1,28.3,14.9H283.4a14.19,14.19,0,0,1,14.2,14.2V43.3a14.084,14.084,0,0,1-14.1,14.1m14.1,226.8V270a14.19,14.19,0,0,0-14.2-14.2H28.3A14.19,14.19,0,0,0,14.1,270v14.2a14.19,14.19,0,0,0,14.2,14.2H283.4a14.19,14.19,0,0,0,14.2-14.2" fill="#ff1400"/>
</svg>

<?xml version="1.0" encoding="utf-8"?>
<!-- Generator: Adobe Illustrator 26.3.1, SVG Export Plug-In . SVG Version: 6.00 Build 0)  -->
<svg version="1.1" id="Layer_1" xmlns="http://www.w3.org/2000/svg" xmlns:xlink="http://www.w3.org/1999/xlink" x="0px" y="0px"
	 viewBox="0 0 311.8 311.8" style="enable-background:new 0 0 311.8 311.8;" xml:space="preserve">
<style type="text/css">
	.st0{fill:#FFFFFF;}
	.st1{fill:#FF1400;}
</style>
<g>
	<path class="st0" d="M28.3,311.8C12.7,311.8,0,299.1,0,283.5V28.3C0,12.7,12.7,0,28.3,0h255.1c15.6,0,28.3,12.7,28.3,28.3v255.1
		c0,15.6-12.7,28.3-28.3,28.3H28.3z"/>
	<path d="M117.9,122.3v89.6H93.7v-89.6H60.2v-19.6h91.3v19.6H117.9z M214.2,214.5c-29.9,0-40.5-20.7-40.5-49.6
		c0-37.9,17.8-65.1,52.7-65.1c6.2,0,11.8,0.8,16.4,1.9l-3.4,18.6c-2.9-1.2-8.7-2.6-15-2.6c-15.3,0-26.4,12.2-28,34.2
		c3.7-3.2,10.8-7.4,22.6-7.4c18.1,0,32.6,11.9,32.6,32.3C251.6,198.4,237.1,214.5,214.2,214.5 M212,161.5c-7,0-12.5,2.6-14.7,6
		c-1.2,1.9-1.2,6.2-1.2,9.4c0,10.4,6,20.4,17.2,20.4c10.8,0,16.4-8.8,16.4-18.2C229.7,168.9,222.9,161.5,212,161.5"/>
	<path class="st1" d="M283.5,57.4H28.3c-7.8,0-14.2-6.3-14.2-14.2V29.1c0-7.8,6.3-14.2,14.2-14.2h255.1c7.8,0,14.2,6.3,14.2,14.2
		v14.2C297.6,51.1,291.3,57.4,283.5,57.4 M297.6,284.2V270c0-7.8-6.3-14.2-14.2-14.2H28.3c-7.8,0-14.2,6.3-14.2,14.2v14.2
		c0,7.8,6.3,14.2,14.2,14.2h255.1C291.3,298.4,297.6,292,297.6,284.2"/>
</g>
</svg>
